packages/assets/static/images/icons/police-car.svg

<svg width="24" height="24" viewBox="0 0 24 24" xmlns="http://www.w3.org/2000/svg">
<g clip-path="url(#clip0_2084_3893)">
<path d="M22.5 10.688H21.6562L19.1925 6.38299C19.0285 6.09601 18.7917 5.85746 18.5059 5.69151C18.2201 5.52556 17.8955 5.43809 17.565 5.43799H6.43497C6.10447 5.43809 5.77988 5.52556 5.49407 5.69151C5.20826 5.85746 4.9714 6.09601 4.80747 6.38299L2.34372 10.688H1.49997C1.2016 10.688 0.915453 10.8065 0.704474 11.0175C0.493496 11.2285 0.374969 11.5146 0.374969 11.813C0.374969 12.1114 0.493496 12.3975 0.704474 12.6085C0.915453 12.8195 1.2016 12.938 1.49997 12.938H1.87497V20.063C1.87497 20.5603 2.07251 21.0372 2.42414 21.3888C2.77577 21.7404 3.25269 21.938 3.74997 21.938H6.37497C6.87225 21.938 7.34916 21.7404 7.70079 21.3888C8.05243 21.0372 8.24997 20.5603 8.24997 20.063V18.188H15.75V20.063C15.75 20.5603 15.9475 21.0372 16.2991 21.3888C16.6508 21.7404 17.1277 21.938 17.625 21.938H20.25C20.7472 21.938 21.2242 21.7404 21.5758 21.3888C21.9274 21.0372 22.125 20.5603 22.125 20.063V12.938H22.5C22.7983 12.938 23.0845 12.8195 23.2955 12.6085C23.5064 12.3975 23.625 12.1114 23.625 11.813C23.625 11.5146 23.5064 11.2285 23.2955 11.0175C23.0845 10.8065 22.7983 10.688 22.5 10.688ZM6.65622 7.68799H17.3437L19.0575 10.688H4.93872L6.65622 7.68799ZM5.99997 19.688H4.12497V18.188H5.99997V19.688ZM19.875 19.688H18V18.188H19.875V19.688ZM19.875 15.938H4.12497V12.938H19.875V15.938ZM8.62497 3.18799C8.62497 2.88962 8.7435 2.60347 8.95447 2.39249C9.16545 2.18151 9.4516 2.06299 9.74997 2.06299H14.25C14.5483 2.06299 14.8345 2.18151 15.0455 2.39249C15.2564 2.60347 15.375 2.88962 15.375 3.18799C15.375 3.48636 15.2564 3.7725 15.0455 3.98348C14.8345 4.19446 14.5483 4.31299 14.25 4.31299H9.74997C9.4516 4.31299 9.16545 4.19446 8.95447 3.98348C8.7435 3.7725 8.62497 3.48636 8.62497 3.18799Z"/>
</g>
<defs>
<clipPath id="clip0_2084_3893">
<rect width="24" height="24"/>
</clipPath>
</defs>
</svg>

<svg viewBox="0 0 24 24" xmlns="http://www.w3.org/2000/svg" aria-hidden="true" fill="currentColor" height="24px" width="24px"><g clip-path="url(#a)"><path d="M22.5 10.688h-.844l-2.463-4.305a1.88 1.88 0 0 0-1.628-.945H6.435a1.88 1.88 0 0 0-1.628.945l-2.463 4.305H1.5a1.125 1.125 0 1 0 0 2.25h.375v7.125a1.875 1.875 0 0 0 1.875 1.875h2.625a1.875 1.875 0 0 0 1.875-1.875v-1.875h7.5v1.875a1.875 1.875 0 0 0 1.875 1.875h2.625a1.875 1.875 0 0 0 1.875-1.875v-7.125h.375a1.125 1.125 0 0 0 0-2.25m-15.844-3h10.688l1.713 3H4.94zm-.656 12H4.125v-1.5H6zm13.875 0H18v-1.5h1.875zm0-3.75H4.125v-3h15.75zM8.625 3.188A1.125 1.125 0 0 1 9.75 2.063h4.5a1.125 1.125 0 0 1 0 2.25h-4.5a1.125 1.125 0 0 1-1.125-1.125"/></g><defs><clipPath id="a"><path d="M0 0h24v24H0z"/></clipPath></defs></svg>
